X:1
T:1. LUCKY SEVEN (32 bar jigs)
T:The Moon and Seven Stars
R:Jig
O:England
M:6/8
B:Winder
A:Lancashire
K:D
P:A
d2A A2F | GAB A3 | Bcd efg | fed cBA |\
d2A A2F | GAB A3 | Bcd cde | Adc d3 :|*
P:B
 |:e2A A2f | efg f3 | efg fed | cdB A2A |\
BGB AFA | BGB AFA | Bcd cde | Adc d3:|**
